X:154
T:Miraculous Hen - Hard
%%VWML:SBG-1-2-1-0
F:http://www.vwml.org/record/SBG/1/2/1
Z:Original Sibelius transcriptions by M. & S. Graebe
M:6/8
I:linebreak $
K:G
V:1 treble nm="P1"
V:1
 G | GFG B2 B | AFF F3 F | A^GA a2 g | fd^c d2 d | dBd g g g | e c c c2 B |$ c B c A d c | %8
w: ||||||||
 B G G G2"^chorus" A | GAB c2 B | AAA A3 | A^GA a2 g |$ fd^c d2 d | d B d g f f | ecB c2 B | %15
w: * * * * Fol-|dol- de- rol- dol, Fi-|dol- de- rol- dol.|Fol- de- rol- dol- de|Fol- de- rol- dol. She|had a mir- a- cu- lous|hen of a size, The|
 cBc ABc | BGG G3 | %17
w: like * &c. * * *||

